X:1
T:Maurice Kelly
M:6/8
L:1/8
K:G
 D/2D/2| GAG GAB| ded dBG| AGA BGD| E3/2 F/2 E E2 D/2D/2| GAG GBc|\
 d3/2 e/2 dd-B G| A3/2 G/2 A BGD| E2 F G2 d| def gge| fed edB| def gge|\
 dBG A2 B| G3/2 A/2 G GAB| ded dBG| A3/2 G/2 AB-G D| EEG G2||
